public/assets/icons/technologies/nextauthjs.svg

<svg xmlns="http://www.w3.org/2000/svg" fill="none" viewBox="0 0 210 232"><g clip-path="url(#a)"><path fill="url(#b)" fill-rule="evenodd" d="M208.687 31.859 30.0947 167.73C8.16388 127.966.567559 79.9975 0 51.2275V33.6181c0-2.5614 2.7788-4.0553 4.16851-4.4825C33.5617 20.2778 93.2465 2.30524 96.8378 1.28069 100.429.256138 103.464 0 104.534 0h.097c1.069 0 4.104.256138 7.696 1.28069 3.591 1.02455 63.276 18.99711 92.669 27.85491 1.034.3177 2.836 1.2257 3.691 2.7234Z" clip-rule="evenodd"/><path fill="url(#c)" fill-rule="evenodd" d="M30.0938 167.952 208.686 32.0815c.295.5168.478 1.1027.478 1.7591V51.45c-.962 48.773-22.126 152.722-99.083 178.336-1.068.427-3.591 1.281-5.13 1.281h-.739c-1.539 0-4.062-.854-5.1307-1.281-31.5621-10.505-53.7399-34.186-68.9875-61.834Z" clip-rule="evenodd"/><path fill="url(#d)" fill-opacity=".21" d="M111.74 1.28325C108.147.25665 105.11 0 104.04 0l-.321 231.305h.642c1.54 0 4.064-.855 5.133-1.283 76.995-25.665 98.169-129.822 99.131-178.6921V33.6853c0-2.5665-2.78-4.0637-4.171-4.4914-29.407-8.8758-89.121-26.88405-92.714-27.91065Z"/><path fill="#E3E2FA" d="M104.905 161.689c26.4 0 47.801-21.257 47.801-47.48 0-26.2226-21.401-47.4802-47.801-47.4802-26.3998 0-47.801 21.2576-47.801 47.4802 0 26.223 21.4012 47.48 47.801 47.48Z"/><path fill="url(#e)" fill-rule="evenodd" d="M96.2435 124.475c-3.6358.321-12.8324-1.283-17.3238-5.133-4.8226-4.134-7.3787-9.624-7.3787-17.645 0-9.9501 8.9829-20.5316 21.4945-20.2109 11.8835.3046 19.8985 7.0033 21.4945 17.6446.833 5.5533-.016 8.2223-.676 10.2953-.102.323-.2.631-.286.933-.321 1.07-.77 3.401 0 4.171.769.77 12.511 12.084 18.286 17.644.534.642 1.604 2.246 1.604 3.529v6.096c0 .962-.257 1.283-1.283 1.283h-12.833c-.748-.107-2.246-.834-2.246-2.887 0-2.189-.233-2.511-.7-3.156-.08-.111-.168-.232-.262-.373-.642-.963-1.925-.963-3.208-.963-1.283 0-2.246-.321-2.887-.962-.642-.642-.642-1.604-.321-2.887.321-1.284 0-2.567-.642-2.888-.102-.051-.22-.118-.353-.194-.704-.4-1.827-1.038-3.176-.768-1.604.321-3.85 0-5.133-1.283-1.283-1.284-2.8873-2.32-4.1705-2.246Zm-8.6621-24.381c2.6577 0 4.8122-2.1547 4.8122-4.8124s-2.1545-4.8122-4.8122-4.8122c-2.6577 0-4.8122 2.1545-4.8122 4.8122 0 2.6577 2.1545 4.8124 4.8122 4.8124Z" clip-rule="evenodd"/></g><defs><linearGradient id="b" x1="19.5695" x2="97.5269" y1="96.5644" y2="15.0782" gradientUnits="userSpaceOnUse"><stop stop-color="#45FFC8"/><stop offset="1" stop-color="#1DBBF1"/></linearGradient><linearGradient id="c" x1="73.7856" x2="170.671" y1="143.724" y2="190.884" gradientUnits="userSpaceOnUse"><stop stop-color="#D14AE8"/><stop offset=".552228" stop-color="#B628E3"/><stop offset="1" stop-color="#8315FD"/></linearGradient><linearGradient id="d" x1="155.914" x2="155.914" y1="21.8152" y2="182.542" gradientUnits="userSpaceOnUse"><stop stop-color="#20ABF5"/><stop offset=".398093" stop-color="#2A8CC3"/><stop offset="1" stop-color="#A104DC"/></linearGradient><linearGradient id="e" x1="90.1481" x2="129.287" y1="99.4517" y2="138.912" gradientUnits="userSpaceOnUse"><stop stop-color="#FE5B01"/><stop offset="1" stop-color="#FFB200"/></linearGradient><clipPath id="a"><path fill="#fff" d="M0 0h210v232H0z"/></clipPath></defs></svg>

<svg width="210" height="232" viewBox="0 0 210 232" fill="none" xmlns="http://www.w3.org/2000/svg">
<g clip-path="url(#clip0_1305_3)">
<path fill-rule="evenodd" clip-rule="evenodd" d="M208.687 31.859L30.0947 167.73C8.16388 127.966 0.567559 79.9975 0 51.2275V33.6181C0 31.0567 2.7788 29.5628 4.16851 29.1356C33.5617 20.2778 93.2465 2.30524 96.8378 1.28069C100.429 0.256138 103.464 0 104.534 0H104.631C105.7 0 108.735 0.256138 112.327 1.28069C115.918 2.30524 175.603 20.2778 204.996 29.1356C206.03 29.4533 207.832 30.3613 208.687 31.859Z" fill="url(#paint0_linear_1305_3)"/>
<path fill-rule="evenodd" clip-rule="evenodd" d="M30.0938 167.952L208.686 32.0815C208.981 32.5983 209.164 33.1842 209.164 33.8406V51.45C208.202 100.223 187.038 204.172 110.081 229.786C109.013 230.213 106.49 231.067 104.951 231.067H104.212C102.673 231.067 100.15 230.213 99.0813 229.786C67.5192 219.281 45.3414 195.6 30.0938 167.952Z" fill="url(#paint1_linear_1305_3)"/>
<path d="M111.74 1.28325C108.147 0.25665 105.11 0 104.04 0L103.719 231.305H104.361C105.901 231.305 108.425 230.45 109.494 230.022C186.489 204.357 207.663 100.2 208.625 51.3299V33.6853C208.625 31.1188 205.845 29.6216 204.454 29.1939C175.047 20.3181 115.333 2.30985 111.74 1.28325Z" fill="url(#paint2_linear_1305_3)" fill-opacity="0.21"/>
<path d="M104.905 161.689C131.305 161.689 152.706 140.432 152.706 114.209C152.706 87.9864 131.305 66.7288 104.905 66.7288C78.5052 66.7288 57.104 87.9864 57.104 114.209C57.104 140.432 78.5052 161.689 104.905 161.689Z" fill="#E3E2FA"/>
<path fill-rule="evenodd" clip-rule="evenodd" d="M96.2435 124.475C92.6077 124.796 83.4111 123.192 78.9197 119.342C74.0971 115.208 71.541 109.718 71.541 101.697C71.541 91.7469 80.5239 81.1654 93.0355 81.4861C104.919 81.7907 112.934 88.4894 114.53 99.1307C115.363 104.684 114.514 107.353 113.854 109.426C113.752 109.749 113.654 110.057 113.568 110.359C113.247 111.429 112.798 113.76 113.568 114.53C114.337 115.3 126.079 126.614 131.854 132.174C132.388 132.816 133.458 134.42 133.458 135.703V141.799C133.458 142.761 133.201 143.082 132.175 143.082H119.342C118.594 142.975 117.096 142.248 117.096 140.195C117.096 138.006 116.863 137.684 116.396 137.039C116.316 136.928 116.228 136.807 116.134 136.666C115.492 135.703 114.209 135.703 112.926 135.703C111.643 135.703 110.68 135.382 110.039 134.741C109.397 134.099 109.397 133.137 109.718 131.854C110.039 130.57 109.718 129.287 109.076 128.966C108.974 128.915 108.856 128.848 108.723 128.772C108.019 128.372 106.896 127.734 105.547 128.004C103.943 128.325 101.697 128.004 100.414 126.721C99.131 125.437 97.5267 124.401 96.2435 124.475ZM87.5814 100.094C90.2391 100.094 92.3936 97.9393 92.3936 95.2816C92.3936 92.6239 90.2391 90.4694 87.5814 90.4694C84.9237 90.4694 82.7692 92.6239 82.7692 95.2816C82.7692 97.9393 84.9237 100.094 87.5814 100.094Z" fill="url(#paint3_linear_1305_3)"/>
</g>
<defs>
<linearGradient id="paint0_linear_1305_3" x1="19.5695" y1="96.5644" x2="97.5269" y2="15.0782" gradientUnits="userSpaceOnUse">
<stop stop-color="#45FFC8"/>
<stop offset="1" stop-color="#1DBBF1"/>
</linearGradient>
<linearGradient id="paint1_linear_1305_3" x1="73.7856" y1="143.724" x2="170.671" y2="190.884" gradientUnits="userSpaceOnUse">
<stop stop-color="#D14AE8"/>
<stop offset="0.552228" stop-color="#B628E3"/>
<stop offset="1" stop-color="#8315FD"/>
</linearGradient>
<linearGradient id="paint2_linear_1305_3" x1="155.914" y1="21.8152" x2="155.914" y2="182.542" gradientUnits="userSpaceOnUse">
<stop stop-color="#20ABF5"/>
<stop offset="0.398093" stop-color="#2A8CC3"/>
<stop offset="1" stop-color="#A104DC"/>
</linearGradient>
<linearGradient id="paint3_linear_1305_3" x1="90.1481" y1="99.4517" x2="129.287" y2="138.912" gradientUnits="userSpaceOnUse">
<stop stop-color="#FE5B01"/>
<stop offset="1" stop-color="#FFB200"/>
</linearGradient>
<clipPath id="clip0_1305_3">
<rect width="210" height="232" fill="white"/>
</clipPath>
</defs>
</svg>
